X: 36887
T: Shoe The Donkey
R: mazurka
M: 3/4
K: Gmajor
|:D>G|B2 B2 D>G|B2 B2 D>G|B>B c2 B2|A4 D>F|
A2 A2 D>F|A2 A2 D>F|A2 d2 B2|1 G4:|2 G2- G>A||
|:B>c|d2 (3gag f2|e4 A>B|c2 e2 d2|B4- B>c|
(3BcB A2 B2|c2- c>B c>d|e2 d2 B>A|1 G2- G>A:|2 G4||
|:"w/ variations"D>G|B2 B>G D>G|B2 B>G D>G|B>G d2 B2|A4 D>F|
[1 A>^G A2 D>F|A>^G A2 D>F|A2 (3ded (3BcB|G4:|
[2 A>F A2 D>F|A>F A2 D>F|A2 d2 B2|G2- G>A||
B>c|d2 (3gag (3fgf|e4 A>B|c2 e2 d2|B4 B>c|
(3BcB A2 B2|c2- c>B c>d|e2 d2 B>A|1 G2- G>A:|2 G4||

